X:18
T:Holly Bush, The
S:Trad, arr. Paddy O'Brien 
R:reel
E:9
I:speed 350
M:C|
K:ADor
Bd|eAAG EAcA|BG ~G2 BABd|efed BAGA|Bdef ~g2ag|\
eAAG EAcA|BG~G2 BABd|eg~g2 aged|egdB A2:|\
Bd|eaag ~a2ge|dg~g2 aged|efed BAGA|Bdef ~g2fg|\
eaag ~a2 ge|dg~g2 agbg|agef gedB|egdB A2:|**


\vfill\eject

